X: 11951
T: En Pasando La Perruca
R: reel
M: 4/4
K: Eminor
|:E>G|:B2-B>BB2c>B|A2-AF GAB>A|G2-GE AGFE|E^d2-dE E>G|
B2-B>BB2c>B|A2-AF GAB>A|G2-GE AGFE|E^d3E^DEF||
G2AG/A/|:B3E E^DEF|G2A>G F>E^D>F|E>FGA FG E2-|EFGA FG E2|
B3B c3c|cBAB BAGF|G>FG>F G>FG>F|E6 E>G:|

